!!!COM: Darwish, Sayed
!!!CDT: 189201923
!!!OTL: National Anthem, Egypt
!!!ENC: Davis, Matthew J.
!!Vocal Line Only
**kern
*clefG2
*k[b-]
*F:
*M2/4
=1-
16c
=2
4f
8.f
16c
=3
4f
6f
6e
6f
=4
4.g
8a
=5
8f
8r
8a
8b-
=6
4cc
8.a
16g
=7
8f
8a
8g
8a
=8
4f
8.e
16g
=9
[4f
8f]
16r
16c
=10
4f
8.f
16c
=11
4f
6f
6e
6f
=12
4.g
8a
=13
8f
8r
8a
8b-
=14
4cc
8.a
16g
=15
8f
8a
8g
8a
=16
4f
8.e
16g
=17
8f
8r
8.a
16a
==!|:18
!Verse
!Coda Symbol
4a
8g
8f
=19
4b-
8.a
16g
[2g
=21
8g]
8r
8.b-
16b-
=22
4b-
8a
8g
=23
4cc
8.b-
16a
=24
[2a
=25
8a]
8r
8.a
16a
=26
4a
8g
8f
=27
4b-
8.a
16g
=28
4.g
16a
16b-
=29
8cc
8r
8.cc
16cc
=30
4cc
8.a
16g
=31
8f
8a
8g
8a
=32
4f
8.e
16g
=33
8f
8r
8r
16r
16c
=34
!Chorus
4f
8.f
16c
=35
4f
6f
6e
6f
=36
4.g
8a
=37
8f
8r
8a
8b-
=38
4cc
8.a
16g
=39
4cc
8.a
16g
=40
8f
8a
8g
8a
=41
4f
8.e
16g
=42
8f
!Fine
8r
8.a
16a
!First Ending - Repeat from measure 18 through end
!Second Ending - Repeat from coda (measure 18) to Fine (1st beat of measure 42)
==:|!
*-
